systematic/svg/Bandai - WonderSwan Color.svg

<?xml version="1.0" encoding="UTF-8" standalone="no"?>
<svg
   xmlns:dc="http://purl.org/dc/elements/1.1/"
   xmlns:cc="http://creativecommons.org/ns#"
   xmlns:rdf="http://www.w3.org/1999/02/22-rdf-syntax-ns#"
   xmlns:svg="http://www.w3.org/2000/svg"
   xmlns="http://www.w3.org/2000/svg"
   viewBox="0 0 320 320"
   height="320"
   width="320"
   xml:space="preserve"
   version="1.1"
   id="svg2"><metadata
     id="metadata8"><rdf:RDF><cc:Work
         rdf:about=""><dc:format>image/svg+xml</dc:format><dc:type
           rdf:resource="http://purl.org/dc/dcmitype/StillImage" /></cc:Work></rdf:RDF></metadata><defs
     id="defs6"><clipPath
       id="clipPath16"
       clipPathUnits="userSpaceOnUse"><path
         id="path18"
         d="M 0,256 256,256 256,0 0,0 0,256 Z" /></clipPath><clipPath
       id="clipPath24"
       clipPathUnits="userSpaceOnUse"><path
         id="path26"
         d="M 3.99965,204 252,204 252,52 3.99965,52 l 0,152 z" /></clipPath></defs><g
     transform="matrix(1.25,0,0,-1.25,0,320)"
     id="g10"><g
       id="g12"><g
         clip-path="url(#clipPath16)"
         id="g14"><g
           id="g20"><g
             id="g22" /><g
             id="g28"><g
               style="opacity:0.5"
               id="g30"
               clip-path="url(#clipPath24)"><g
                 id="g32"
                 transform="translate(77.3714,204)"><path
                   id="path34"
                   style="fill:#ffffff;fill-opacity:1;fill-rule:nonzero;stroke:none"
                   d="m 0,0 c -7.538,0 -14.841,-0.884 -22.317,-2.703 -3.006,-0.527 -6.162,-0.678 -9.498,-0.836 -9.762,-0.465 -21.911,-1.042 -32.287,-12.739 -3.939,-4.439 -6.455,-12.229 -7.92,-24.516 -1.112,-9.326 -1.55,-21.009 -1.265,-33.787 0.483,-21.692 3.156,-47.879 8.037,-57.483 6.447,-12.683 15.081,-19.114 25.663,-19.114 l 0.198,0.001 c 15.704,0 26.121,-0.329 33.728,-0.569 4.496,-0.142 8.048,-0.254 11.221,-0.254 4.835,0 8.585,0.278 12.538,0.929 8.56,1.404 16.533,2.058 25.088,2.058 8.336,0 16.089,-0.627 24.297,-1.29 8.93,-0.722 18.164,-1.468 28.885,-1.468 14.719,0 29.174,1.402 45.491,4.411 13.457,2.482 31.492,7.849 32.75,25.729 0.013,0.187 0.02,0.374 0.02,0.561 l 0,92.114 c 0,0.074 -0.001,0.149 -0.003,0.223 -0.26,9.319 -3.749,15.69 -10.668,19.477 -5.445,2.981 -12.181,3.976 -21.505,5.353 -2.611,0.385 -5.309,0.784 -8.242,1.264 -9.799,1.607 -18.582,2.388 -26.854,2.388 -12.09,0 -20.957,-1.647 -29.533,-3.24 -7.546,-1.402 -14.673,-2.727 -23.569,-2.727 -9.191,0 -17.403,1.465 -26.097,3.016 C 19.335,-1.628 10.212,0 0,0" /></g></g></g></g><g
           transform="translate(19.2533,75.5611)"
           id="g36"><path
             id="path38"
             style="fill:#4b5da7;fill-opacity:1;fill-rule:nonzero;stroke:none"
             d="m 0,0 c 4.685,-9.217 10.529,-14.83 18.729,-14.738 37.458,0 44.949,-1.852 56.187,0 44.949,7.369 63.678,-7.369 123.61,3.684 20.197,3.725 25.65,10.306 26.221,18.423 l 0,92.114 c -0.432,15.519 -11.238,14.738 -33.712,18.423 -41.31,6.772 -52.441,-3.685 -78.662,-3.685 -26.22,0 -44.949,11.054 -74.915,3.685 C 24.415,115.528 11.237,119.518 0,106.852 -11.631,93.742 -7.492,14.738 0,0" /></g><g
           transform="translate(206.7102,169.2311)"
           id="g40"><path
             id="path42"
             style="fill:#404040;fill-opacity:1;fill-rule:nonzero;stroke:none"
             d="m 0,0 c -0.222,0.173 -0.477,0.293 -0.753,0.352 -26.565,5.744 -51.409,8.509 -73.779,8.415 -25.854,-0.188 -48.519,-4.594 -65.549,-12.742 -0.735,-0.351 -1.155,-1.139 -1.037,-1.946 0.14,-0.961 0.213,-1.986 0.213,-2.987 0,-11.221 -9.195,-20.349 -20.498,-20.349 -1.594,0 -3.177,0.18 -4.702,0.532 -0.899,0.207 -1.785,-0.256 -2.138,-1.086 -3.447,-8.142 -3.28,-16.783 0.487,-24.988 0.361,-0.789 1.221,-1.214 2.077,-1.047 1.346,0.284 2.786,0.426 4.276,0.426 11.303,0 20.498,-9.183 20.498,-20.466 0,-0.563 -0.053,-1.152 -0.109,-1.82 -0.067,-0.782 0.364,-1.519 1.077,-1.846 15.261,-7.006 37.411,-10.989 62.373,-11.218 0.355,0.066 0.791,0.124 1.115,0.36 2.601,1.897 4.217,2.369 8.237,2.406 4.127,-0.044 5.648,-0.876 8.152,-2.831 0.328,-0.258 0.732,-0.396 1.147,-0.396 0.047,0 0.091,0 0.138,0.003 15.497,1.149 35.027,4.448 58.051,9.808 0.189,0.047 0.371,0.12 0.538,0.218 7.88,4.746 12.415,22.569 13.292,37.126 C 14.325,-23.821 9.426,-7.344 0,0" /></g><g
           transform="translate(144,74)"
           id="g44"><path
             id="path46"
             style="fill:#eac500;fill-opacity:1;fill-rule:nonzero;stroke:none"
             d="m 0,0 c 0,-2.209 -2.686,-4 -6,-4 -3.314,0 -6,1.791 -6,4 0,2.209 2.686,4 6,4 3.314,0 6,-1.791 6,-4" /></g><g
           transform="translate(110.5714,76)"
           id="g48"><path
             id="path50"
             style="fill:#ecf0f1;fill-opacity:1;fill-rule:nonzero;stroke:none"
             d="m 0,0 6.857,0 c 1.42,0 2.572,-0.895 2.572,-2 0,-1.105 -1.152,-2 -2.572,-2 L 0,-4 c -1.42,0 -2.571,0.895 -2.571,2 0,1.105 1.151,2 2.571,2" /></g><g
           transform="translate(90.5714,76)"
           id="g52"><path
             id="path54"
             style="fill:#ecf0f1;fill-opacity:1;fill-rule:nonzero;stroke:none"
             d="m 0,0 6.857,0 c 1.42,0 2.572,-0.895 2.572,-2 0,-1.105 -1.152,-2 -2.572,-2 L 0,-4 c -1.42,0 -2.571,0.895 -2.571,2 0,1.105 1.151,2 2.571,2" /></g><g
           transform="translate(40.563,166.4715)"
           id="g56"><path
             id="path58"
             style="fill:#ecf0f1;fill-opacity:1;fill-rule:nonzero;stroke:none"
             d="m 0,0 c 0.363,-0.416 0.887,-0.652 1.437,-0.652 0.55,0 1.074,0.236 1.437,0.652 l 6.68,7.635 c 0.585,0.669 0.63,1.657 0.108,2.379 C 7.789,12.592 4.21,13.867 0.067,13.451 -2.65,13.168 -5.929,12.029 -6.984,9.673 -7.289,8.992 -7.17,8.196 -6.68,7.635 L 0,0 Z" /></g><g
           transform="translate(43.437,157.5313)"
           id="g60"><path
             id="path62"
             style="fill:#ecf0f1;fill-opacity:1;fill-rule:nonzero;stroke:none"
             d="m 0,0 c -0.727,0.831 -2.147,0.831 -2.874,0 l -6.68,-7.635 c -0.49,-0.561 -0.609,-1.357 -0.304,-2.038 1.055,-2.356 4.334,-3.495 7.051,-3.778 0.526,-0.054 1.042,-0.08 1.547,-0.08 3.47,0 6.412,1.265 8.048,3.517 0.522,0.722 0.477,1.71 -0.108,2.379 L 0,0 Z" /></g><g
           transform="translate(38.1829,162.0014)"
           id="g64"><path
             id="path66"
             style="fill:#ecf0f1;fill-opacity:1;fill-rule:nonzero;stroke:none"
             d="m 0,0 c 0,0.55 -0.237,1.074 -0.652,1.437 l -7.635,6.681 c -0.672,0.589 -1.658,0.626 -2.378,0.108 -2.579,-1.875 -3.865,-5.462 -3.437,-9.596 0.284,-2.718 1.422,-5.997 3.778,-7.052 0.252,-0.114 0.517,-0.168 0.781,-0.168 0.453,0 0.902,0.162 1.256,0.472 l 7.635,6.681 C -0.237,-1.074 0,-0.55 0,0" /></g><g
           transform="translate(59.9188,163.3715)"
           id="g68"><path
             id="path70"
             style="fill:#ecf0f1;fill-opacity:1;fill-rule:nonzero;stroke:none"
             d="M 0,0 C -0.283,2.718 -1.422,5.997 -3.778,7.052 -4.46,7.363 -5.256,7.24 -5.815,6.748 l -7.634,-6.681 c -0.416,-0.363 -0.653,-0.887 -0.653,-1.437 0,-0.55 0.237,-1.074 0.653,-1.437 l 7.634,-6.681 c 0.358,-0.313 0.807,-0.472 1.256,-0.472 0.393,0 0.787,0.121 1.122,0.364 C -0.857,-7.721 0.429,-4.135 0,0" /></g><g
           transform="translate(40.5629,94.4744)"
           id="g72"><path
             id="path74"
             style="fill:#ecf0f1;fill-opacity:1;fill-rule:nonzero;stroke:none"
             d="m 0,0 c 0.363,-0.414 0.887,-0.653 1.437,-0.653 0.55,0 1.074,0.239 1.437,0.653 l 6.68,7.637 c 0.586,0.671 0.63,1.656 0.108,2.379 -1.875,2.577 -5.465,3.833 -9.591,3.438 -2.72,-0.283 -6,-1.424 -7.055,-3.781 C -7.29,8.994 -7.17,8.196 -6.68,7.637 L 0,0 Z" /></g><g
           transform="translate(43.437,85.5324)"
           id="g76"><path
             id="path78"
             style="fill:#ecf0f1;fill-opacity:1;fill-rule:nonzero;stroke:none"
             d="m 0,0 c -0.727,0.828 -2.147,0.828 -2.874,0 l -6.68,-7.637 c -0.49,-0.559 -0.61,-1.357 -0.304,-2.036 1.055,-2.357 4.335,-3.498 7.055,-3.781 0.524,-0.052 1.04,-0.078 1.545,-0.078 3.469,0 6.41,1.264 8.046,3.516 0.522,0.723 0.477,1.708 -0.108,2.379 L 0,0 Z" /></g><g
           transform="translate(38.1828,90.0034)"
           id="g80"><path
             id="path82"
             style="fill:#ecf0f1;fill-opacity:1;fill-rule:nonzero;stroke:none"
             d="m 0,0 c 0,0.552 -0.237,1.074 -0.652,1.436 l -7.635,6.682 c -0.673,0.589 -1.659,0.634 -2.378,0.108 -2.58,-1.872 -3.864,-5.459 -3.437,-9.591 0.281,-2.718 1.422,-6 3.778,-7.059 0.25,-0.112 0.516,-0.168 0.781,-0.168 0.453,0 0.902,0.161 1.256,0.474 l 7.635,6.682 C -0.237,-1.074 0,-0.552 0,0" /></g><g
           transform="translate(59.9193,91.3682)"
           id="g84"><path
             id="path86"
             style="fill:#ecf0f1;fill-opacity:1;fill-rule:nonzero;stroke:none"
             d="M 0,0 C -0.281,2.718 -1.422,6 -3.778,7.059 -4.455,7.361 -5.256,7.253 -5.815,6.753 L -13.45,0.071 c -0.415,-0.362 -0.652,-0.884 -0.652,-1.436 0,-0.552 0.237,-1.074 0.652,-1.435 l 7.635,-6.683 c 0.358,-0.313 0.807,-0.473 1.256,-0.473 0.393,0 0.786,0.119 1.122,0.365 C -0.857,-7.719 0.427,-4.132 0,0" /></g><g
           transform="translate(219.437,89.5324)"
           id="g88"><path
             id="path90"
             style="fill:#ecf0f1;fill-opacity:1;fill-rule:nonzero;stroke:none"
             d="m 0,0 c -0.727,0.828 -2.147,0.828 -2.874,0 l -6.68,-7.637 c -0.49,-0.559 -0.61,-1.357 -0.304,-2.036 1.055,-2.357 4.335,-3.498 7.055,-3.781 0.524,-0.052 1.04,-0.078 1.545,-0.078 3.469,0 6.41,1.264 8.046,3.516 0.522,0.723 0.477,1.708 -0.108,2.379 L 0,0 Z" /></g><g
           transform="translate(235.9193,95.3682)"
           id="g92"><path
             id="path94"
             style="fill:#ecf0f1;fill-opacity:1;fill-rule:nonzero;stroke:none"
             d="M 0,0 C -0.281,2.718 -1.422,6 -3.778,7.059 -4.455,7.361 -5.256,7.253 -5.815,6.753 L -13.45,0.071 c -0.415,-0.362 -0.652,-0.884 -0.652,-1.436 0,-0.552 0.237,-1.074 0.652,-1.435 l 7.635,-6.683 c 0.358,-0.313 0.807,-0.473 1.256,-0.473 0.393,0 0.786,0.119 1.122,0.365 C -0.857,-7.719 0.427,-4.132 0,0" /></g><g
           transform="translate(243.0659,174)"
           id="g96"><path
             id="path98"
             style="fill:#333e70;fill-opacity:1;fill-rule:nonzero;stroke:none"
             d="m 0,0 -19.691,0 -8.441,0 c -0.516,0 -0.934,-0.446 -0.934,-0.996 l 0,-0.008 c 0,-0.55 0.418,-0.996 0.934,-0.996 l 8.441,0 19.691,0 0.934,0 0,0.996 0,0.008 L 0.934,0 0,0 Z" /></g><g
           transform="translate(223.4666,170)"
           id="g100"><path
             id="path102"
             style="fill:#333e70;fill-opacity:1;fill-rule:nonzero;stroke:none"
             d="m 0,0 -6.592,0 c -0.483,0 -0.875,-0.42 -0.875,-0.937 l 0,-0.126 C -7.467,-1.58 -7.075,-2 -6.592,-2 L 0,-2 l 19.658,0 0.875,0 0,0.937 0,0.126 0,0.937 L 19.658,0 0,0 Z" /></g><g
           transform="translate(223.5715,166)"
           id="g104"><path
             id="path106"
             style="fill:#333e70;fill-opacity:1;fill-rule:nonzero;stroke:none"
             d="m 0,0 -4.846,0 c -0.401,0 -0.726,-0.35 -0.726,-0.781 l 0,-0.438 C -5.572,-1.65 -5.247,-2 -4.846,-2 L 0,-2 l 19.703,0 0.725,0 0,0.781 0,0.438 0,0.781 L 19.703,0 0,0 Z" /></g><g
           transform="translate(223.6924,162)"
           id="g108"><path
             id="path110"
             style="fill:#333e70;fill-opacity:1;fill-rule:nonzero;stroke:none"
             d="m 0,0 -2.772,0 c -0.509,0 -0.92,-0.446 -0.92,-0.996 l 0,-0.008 c 0,-0.55 0.411,-0.996 0.92,-0.996 L 0,-2 l 19.388,0 0.92,0 0,0.996 0,0.008 0,0.996 -0.92,0 L 0,0 Z" /></g><g
           transform="translate(223.8334,158)"
           id="g112"><path
             id="path114"
             style="fill:#333e70;fill-opacity:1;fill-rule:nonzero;stroke:none"
             d="m 0,0 -0.92,0 c -0.504,0 -0.913,-0.446 -0.913,-0.997 l 0,-0.007 C -1.833,-1.554 -1.424,-2 -0.92,-2 l 0.92,0 19.253,0 0.914,0 0,0.996 0,0.007 0,0.997 L 19.253,0 0,0 Z" /></g><path
           id="path116"
           style="fill:#8c8c8c;fill-opacity:1;fill-rule:nonzero;stroke:none"
           d="m 84,164 108,0 0,-68 -108,0 0,68 z" /></g></g></g></svg>

<?xml version="1.0" encoding="UTF-8" standalone="no"?>
<svg
   xmlns:dc="http://purl.org/dc/elements/1.1/"
   xmlns:cc="http://creativecommons.org/ns#"
   xmlns:rdf="http://www.w3.org/1999/02/22-rdf-syntax-ns#"
   xmlns:svg="http://www.w3.org/2000/svg"
   xmlns="http://www.w3.org/2000/svg"
   viewBox="0 0 330.66696 202.66665"
   height="202.66666"
   width="330.66696"
   xml:space="preserve"
   id="svg2"
   version="1.1"><metadata
     id="metadata8"><rdf:RDF><cc:Work
         rdf:about=""><dc:format>image/svg+xml</dc:format><dc:type
           rdf:resource="http://purl.org/dc/dcmitype/StillImage" /></cc:Work></rdf:RDF></metadata><defs
     id="defs6"><clipPath
       id="clipPath18"
       clipPathUnits="userSpaceOnUse"><path
         id="path16"
         d="M 0,256 H 256 V 0 H 0 Z" /></clipPath><clipPath
       id="clipPath26"
       clipPathUnits="userSpaceOnUse"><path
         id="path24"
         d="M 3.99965,204 H 252 V 52 H 3.99965 Z" /></clipPath></defs><g
     transform="matrix(1.3333333,0,0,-1.3333333,-5.3330168,271.99999)"
     id="g10"><g
       id="g12"><g
         clip-path="url(#clipPath18)"
         id="g14"><g
           id="g20"><g
             id="g22" /><g
             id="g34"><g
               style="opacity:0.5"
               id="g32"
               clip-path="url(#clipPath26)"><g
                 id="g30"
                 transform="translate(77.3714,204)"><path
                   id="path28"
                   style="fill:#ffffff;fill-opacity:1;fill-rule:nonzero;stroke:none"
                   d="m 0,0 c -7.538,0 -14.841,-0.884 -22.317,-2.703 -3.006,-0.527 -6.162,-0.678 -9.498,-0.836 -9.762,-0.465 -21.911,-1.042 -32.287,-12.739 -3.939,-4.439 -6.455,-12.229 -7.92,-24.516 -1.112,-9.326 -1.55,-21.009 -1.265,-33.787 0.483,-21.692 3.156,-47.879 8.037,-57.483 6.447,-12.683 15.081,-19.114 25.663,-19.114 l 0.198,0.001 c 15.704,0 26.121,-0.329 33.728,-0.569 4.496,-0.142 8.048,-0.254 11.221,-0.254 4.835,0 8.585,0.278 12.538,0.929 8.56,1.404 16.533,2.058 25.088,2.058 8.336,0 16.089,-0.627 24.297,-1.29 8.93,-0.722 18.164,-1.468 28.885,-1.468 14.719,0 29.174,1.402 45.491,4.411 13.457,2.482 31.492,7.849 32.75,25.729 0.013,0.187 0.02,0.374 0.02,0.561 v 92.114 c 0,0.074 -0.001,0.149 -0.003,0.223 -0.26,9.319 -3.749,15.69 -10.668,19.477 -5.445,2.981 -12.181,3.976 -21.505,5.353 -2.611,0.385 -5.309,0.784 -8.242,1.264 -9.799,1.607 -18.582,2.388 -26.854,2.388 -12.09,0 -20.957,-1.647 -29.533,-3.24 -7.546,-1.402 -14.673,-2.727 -23.569,-2.727 -9.191,0 -17.403,1.465 -26.097,3.016 C 19.335,-1.628 10.212,0 0,0" /></g></g></g></g><g
           transform="translate(19.2533,75.5611)"
           id="g36"><path
             id="path38"
             style="fill:#4b5da7;fill-opacity:1;fill-rule:nonzero;stroke:none"
             d="m 0,0 c 4.685,-9.217 10.529,-14.83 18.729,-14.738 37.458,0 44.949,-1.852 56.187,0 44.949,7.369 63.678,-7.369 123.61,3.684 20.197,3.725 25.65,10.306 26.221,18.423 v 92.114 c -0.432,15.519 -11.238,14.738 -33.712,18.423 -41.31,6.772 -52.441,-3.685 -78.662,-3.685 -26.22,0 -44.949,11.054 -74.915,3.685 C 24.415,115.528 11.237,119.518 0,106.852 -11.631,93.742 -7.492,14.738 0,0" /></g><g
           transform="translate(206.7102,169.2311)"
           id="g40"><path
             id="path42"
             style="fill:#404040;fill-opacity:1;fill-rule:nonzero;stroke:none"
             d="m 0,0 c -0.222,0.173 -0.477,0.293 -0.753,0.352 -26.565,5.744 -51.409,8.509 -73.779,8.415 -25.854,-0.188 -48.519,-4.594 -65.549,-12.742 -0.735,-0.351 -1.155,-1.139 -1.037,-1.946 0.14,-0.961 0.213,-1.986 0.213,-2.987 0,-11.221 -9.195,-20.349 -20.498,-20.349 -1.594,0 -3.177,0.18 -4.702,0.532 -0.899,0.207 -1.785,-0.256 -2.138,-1.086 -3.447,-8.142 -3.28,-16.783 0.487,-24.988 0.361,-0.789 1.221,-1.214 2.077,-1.047 1.346,0.284 2.786,0.426 4.276,0.426 11.303,0 20.498,-9.183 20.498,-20.466 0,-0.563 -0.053,-1.152 -0.109,-1.82 -0.067,-0.782 0.364,-1.519 1.077,-1.846 15.261,-7.006 37.411,-10.989 62.373,-11.218 0.355,0.066 0.791,0.124 1.115,0.36 2.601,1.897 4.217,2.369 8.237,2.406 4.127,-0.044 5.648,-0.876 8.152,-2.831 0.328,-0.258 0.732,-0.396 1.147,-0.396 0.047,0 0.091,0 0.138,0.003 15.497,1.149 35.027,4.448 58.051,9.808 0.189,0.047 0.371,0.12 0.538,0.218 7.88,4.746 12.415,22.569 13.292,37.126 C 14.325,-23.821 9.426,-7.344 0,0" /></g><g
           transform="translate(144,74)"
           id="g44"><path
             id="path46"
             style="fill:#eac500;fill-opacity:1;fill-rule:nonzero;stroke:none"
             d="m 0,0 c 0,-2.209 -2.686,-4 -6,-4 -3.314,0 -6,1.791 -6,4 0,2.209 2.686,4 6,4 3.314,0 6,-1.791 6,-4" /></g><g
           transform="translate(110.5714,76)"
           id="g48"><path
             id="path50"
             style="fill:#ecf0f1;fill-opacity:1;fill-rule:nonzero;stroke:none"
             d="m 0,0 h 6.857 c 1.42,0 2.572,-0.895 2.572,-2 0,-1.105 -1.152,-2 -2.572,-2 H 0 c -1.42,0 -2.571,0.895 -2.571,2 0,1.105 1.151,2 2.571,2" /></g><g
           transform="translate(90.5714,76)"
           id="g52"><path
             id="path54"
             style="fill:#ecf0f1;fill-opacity:1;fill-rule:nonzero;stroke:none"
             d="m 0,0 h 6.857 c 1.42,0 2.572,-0.895 2.572,-2 0,-1.105 -1.152,-2 -2.572,-2 H 0 c -1.42,0 -2.571,0.895 -2.571,2 0,1.105 1.151,2 2.571,2" /></g><g
           transform="translate(40.563,166.4715)"
           id="g56"><path
             id="path58"
             style="fill:#ecf0f1;fill-opacity:1;fill-rule:nonzero;stroke:none"
             d="m 0,0 c 0.363,-0.416 0.887,-0.652 1.437,-0.652 0.55,0 1.074,0.236 1.437,0.652 l 6.68,7.635 c 0.585,0.669 0.63,1.657 0.108,2.379 C 7.789,12.592 4.21,13.867 0.067,13.451 -2.65,13.168 -5.929,12.029 -6.984,9.673 -7.289,8.992 -7.17,8.196 -6.68,7.635 Z" /></g><g
           transform="translate(43.437,157.5313)"
           id="g60"><path
             id="path62"
             style="fill:#ecf0f1;fill-opacity:1;fill-rule:nonzero;stroke:none"
             d="m 0,0 c -0.727,0.831 -2.147,0.831 -2.874,0 l -6.68,-7.635 c -0.49,-0.561 -0.609,-1.357 -0.304,-2.038 1.055,-2.356 4.334,-3.495 7.051,-3.778 0.526,-0.054 1.042,-0.08 1.547,-0.08 3.47,0 6.412,1.265 8.048,3.517 0.522,0.722 0.477,1.71 -0.108,2.379 z" /></g><g
           transform="translate(38.1829,162.0014)"
           id="g64"><path
             id="path66"
             style="fill:#ecf0f1;fill-opacity:1;fill-rule:nonzero;stroke:none"
             d="m 0,0 c 0,0.55 -0.237,1.074 -0.652,1.437 l -7.635,6.681 c -0.672,0.589 -1.658,0.626 -2.378,0.108 -2.579,-1.875 -3.865,-5.462 -3.437,-9.596 0.284,-2.718 1.422,-5.997 3.778,-7.052 0.252,-0.114 0.517,-0.168 0.781,-0.168 0.453,0 0.902,0.162 1.256,0.472 l 7.635,6.681 C -0.237,-1.074 0,-0.55 0,0" /></g><g
           transform="translate(59.9188,163.3715)"
           id="g68"><path
             id="path70"
             style="fill:#ecf0f1;fill-opacity:1;fill-rule:nonzero;stroke:none"
             d="M 0,0 C -0.283,2.718 -1.422,5.997 -3.778,7.052 -4.46,7.363 -5.256,7.24 -5.815,6.748 l -7.634,-6.681 c -0.416,-0.363 -0.653,-0.887 -0.653,-1.437 0,-0.55 0.237,-1.074 0.653,-1.437 l 7.634,-6.681 c 0.358,-0.313 0.807,-0.472 1.256,-0.472 0.393,0 0.787,0.121 1.122,0.364 C -0.857,-7.721 0.429,-4.135 0,0" /></g><g
           transform="translate(40.5629,94.4744)"
           id="g72"><path
             id="path74"
             style="fill:#ecf0f1;fill-opacity:1;fill-rule:nonzero;stroke:none"
             d="m 0,0 c 0.363,-0.414 0.887,-0.653 1.437,-0.653 0.55,0 1.074,0.239 1.437,0.653 l 6.68,7.637 c 0.586,0.671 0.63,1.656 0.108,2.379 -1.875,2.577 -5.465,3.833 -9.591,3.438 -2.72,-0.283 -6,-1.424 -7.055,-3.781 C -7.29,8.994 -7.17,8.196 -6.68,7.637 Z" /></g><g
           transform="translate(43.437,85.5324)"
           id="g76"><path
             id="path78"
             style="fill:#ecf0f1;fill-opacity:1;fill-rule:nonzero;stroke:none"
             d="m 0,0 c -0.727,0.828 -2.147,0.828 -2.874,0 l -6.68,-7.637 c -0.49,-0.559 -0.61,-1.357 -0.304,-2.036 1.055,-2.357 4.335,-3.498 7.055,-3.781 0.524,-0.052 1.04,-0.078 1.545,-0.078 3.469,0 6.41,1.264 8.046,3.516 0.522,0.723 0.477,1.708 -0.108,2.379 z" /></g><g
           transform="translate(38.1828,90.0034)"
           id="g80"><path
             id="path82"
             style="fill:#ecf0f1;fill-opacity:1;fill-rule:nonzero;stroke:none"
             d="m 0,0 c 0,0.552 -0.237,1.074 -0.652,1.436 l -7.635,6.682 c -0.673,0.589 -1.659,0.634 -2.378,0.108 -2.58,-1.872 -3.864,-5.459 -3.437,-9.591 0.281,-2.718 1.422,-6 3.778,-7.059 0.25,-0.112 0.516,-0.168 0.781,-0.168 0.453,0 0.902,0.161 1.256,0.474 l 7.635,6.682 C -0.237,-1.074 0,-0.552 0,0" /></g><g
           transform="translate(59.9193,91.3682)"
           id="g84"><path
             id="path86"
             style="fill:#ecf0f1;fill-opacity:1;fill-rule:nonzero;stroke:none"
             d="M 0,0 C -0.281,2.718 -1.422,6 -3.778,7.059 -4.455,7.361 -5.256,7.253 -5.815,6.753 L -13.45,0.071 c -0.415,-0.362 -0.652,-0.884 -0.652,-1.436 0,-0.552 0.237,-1.074 0.652,-1.435 l 7.635,-6.683 c 0.358,-0.313 0.807,-0.473 1.256,-0.473 0.393,0 0.786,0.119 1.122,0.365 C -0.857,-7.719 0.427,-4.132 0,0" /></g><g
           transform="translate(219.437,89.5324)"
           id="g88"><path
             id="path90"
             style="fill:#ecf0f1;fill-opacity:1;fill-rule:nonzero;stroke:none"
             d="m 0,0 c -0.727,0.828 -2.147,0.828 -2.874,0 l -6.68,-7.637 c -0.49,-0.559 -0.61,-1.357 -0.304,-2.036 1.055,-2.357 4.335,-3.498 7.055,-3.781 0.524,-0.052 1.04,-0.078 1.545,-0.078 3.469,0 6.41,1.264 8.046,3.516 0.522,0.723 0.477,1.708 -0.108,2.379 z" /></g><g
           transform="translate(235.9193,95.3682)"
           id="g92"><path
             id="path94"
             style="fill:#ecf0f1;fill-opacity:1;fill-rule:nonzero;stroke:none"
             d="M 0,0 C -0.281,2.718 -1.422,6 -3.778,7.059 -4.455,7.361 -5.256,7.253 -5.815,6.753 L -13.45,0.071 c -0.415,-0.362 -0.652,-0.884 -0.652,-1.436 0,-0.552 0.237,-1.074 0.652,-1.435 l 7.635,-6.683 c 0.358,-0.313 0.807,-0.473 1.256,-0.473 0.393,0 0.786,0.119 1.122,0.365 C -0.857,-7.719 0.427,-4.132 0,0" /></g><g
           transform="translate(243.0659,174)"
           id="g96"><path
             id="path98"
             style="fill:#333e70;fill-opacity:1;fill-rule:nonzero;stroke:none"
             d="m 0,0 h -19.691 -8.441 c -0.516,0 -0.934,-0.446 -0.934,-0.996 v -0.008 c 0,-0.55 0.418,-0.996 0.934,-0.996 H -19.691 0 0.934 V -1.004 -0.996 0 Z" /></g><g
           transform="translate(223.4666,170)"
           id="g100"><path
             id="path102"
             style="fill:#333e70;fill-opacity:1;fill-rule:nonzero;stroke:none"
             d="M 0,0 H -6.592 C -7.075,0 -7.467,-0.42 -7.467,-0.937 V -1.063 C -7.467,-1.58 -7.075,-2 -6.592,-2 H 0 19.658 20.533 V -1.063 -0.937 0 h -0.875 z" /></g><g
           transform="translate(223.5715,166)"
           id="g104"><path
             id="path106"
             style="fill:#333e70;fill-opacity:1;fill-rule:nonzero;stroke:none"
             d="M 0,0 H -4.846 C -5.247,0 -5.572,-0.35 -5.572,-0.781 V -1.219 C -5.572,-1.65 -5.247,-2 -4.846,-2 H 0 19.703 20.428 V -1.219 -0.781 0 h -0.725 z" /></g><g
           transform="translate(223.6924,162)"
           id="g108"><path
             id="path110"
             style="fill:#333e70;fill-opacity:1;fill-rule:nonzero;stroke:none"
             d="m 0,0 h -2.772 c -0.509,0 -0.92,-0.446 -0.92,-0.996 v -0.008 c 0,-0.55 0.411,-0.996 0.92,-0.996 H 0 19.388 20.308 V -1.004 -0.996 0 h -0.92 z" /></g><g
           transform="translate(223.8334,158)"
           id="g112"><path
             id="path114"
             style="fill:#333e70;fill-opacity:1;fill-rule:nonzero;stroke:none"
             d="M 0,0 H -0.92 C -1.424,0 -1.833,-0.446 -1.833,-0.997 V -1.004 C -1.833,-1.554 -1.424,-2 -0.92,-2 H 0 19.253 20.167 V -1.004 -0.997 0 h -0.914 z" /></g><path
           id="path116"
           style="fill:#8c8c8c;fill-opacity:1;fill-rule:nonzero;stroke:none"
           d="M 84,164 H 192 V 96 H 84 Z" /></g></g></g></svg>
